src/assets/icon-dark-mode-light.svg

<svg width="24" height="24" viewBox="0 0 24 24" fill="none" xmlns="http://www.w3.org/2000/svg">
<rect width="24" height="24" rx="4" fill="#C8C8C9"/>
<path d="M17.9799 14.3161C17.5547 15.2911 16.871 16.1407 15.9977 16.7793C15.1243 17.4179 14.0921 17.823 13.005 17.9538C11.9179 18.0846 10.8144 17.9364 9.80546 17.5243C8.79654 17.1121 7.91789 16.4505 7.258 15.606C6.59811 14.7616 6.18029 13.7641 6.0466 12.7141C5.91291 11.664 6.06809 10.5985 6.49649 9.62483C6.9249 8.65115 7.61141 7.80367 8.48689 7.16774C9.36237 6.53182 10.3959 6.12991 11.4834 6.00248C11.5589 5.99378 11.6352 6.00809 11.7018 6.0434C11.7684 6.07872 11.8219 6.13327 11.8548 6.19942C11.8893 6.26435 11.9014 6.33814 11.8897 6.41018C11.8779 6.48222 11.8427 6.5488 11.7893 6.60033C11.3429 7.02804 10.9898 7.53783 10.7508 8.09958C10.5119 8.66133 10.392 9.26364 10.3982 9.87091C10.4046 10.6691 10.625 11.4521 11.038 12.1436C11.4509 12.835 12.0422 13.4114 12.7544 13.8166C13.4666 14.2217 14.2752 14.4418 15.1017 14.4554C15.9281 14.469 16.7441 14.2756 17.4701 13.8941C17.5375 13.8605 17.6138 13.8472 17.6891 13.856C17.7645 13.8648 17.8353 13.8952 17.8925 13.9433C17.9413 13.9916 17.9752 14.052 17.9907 14.1178C18.0061 14.1836 18.0024 14.2522 17.9799 14.3161V14.3161Z" fill="white"/>
</svg>

<svg width="24" height="24" fill="none" xmlns="http://www.w3.org/2000/svg"><rect width="24" height="24" rx="4" fill="#BEC6DB"/><path d="M17.98 14.316a6.055 6.055 0 01-1.982 2.463 6.359 6.359 0 01-2.993 1.175 6.436 6.436 0 01-3.2-.43 6.209 6.209 0 01-2.547-1.918 5.908 5.908 0 01-1.211-2.892 5.834 5.834 0 01.45-3.09 6.057 6.057 0 011.99-2.456 6.36 6.36 0 012.996-1.166.375.375 0 01.219.041.357.357 0 01.188.367.341.341 0 01-.1.19c-.447.428-.8.938-1.04 1.5a4.409 4.409 0 00-.352 1.77 4.5 4.5 0 00.64 2.274 4.705 4.705 0 001.716 1.673c.713.405 1.521.625 2.348.638a4.921 4.921 0 002.368-.56.39.39 0 01.422.048.354.354 0 01.087.373z" fill="#fff"/></svg>
